X: 14049
T: LESLIE FULLER'S JIG
C: Bob McQuillen April'09
B: Bob's Note Book 14 #49
%R: jig
%D:2009
Z: 2020 John Chambers <jc:trillian.mit.edu>
M: 6/8
L: 1/8
K: G	% and Em
Bd \
| edB AGA | BdB AGE | DEG  GBd | edB d2g |\
| edB AGE | GBG EGE | DGB AGA | BGG G2 :: Bd \
| ged edB |
| deg e2d | geg edB | dBG E2G || DEG EDE |\
[1 GBG EDE | GBd edB | AGF G2 :|\
[2 GBd e2d | ged BGB AGG G2 :|
%%begintext align
%% Leslie Fuller is a
%% real nice woman and a fine fiddler as well.
%% She's from Reading, MA, and I just thought
%% she ought to have a tune of her own to play
%% for all those folks back in Reading. So here
%% it is, Leslie! Hope they (and you!) like it.
%%endtext

%%sep 1 1 500

%%sep 1 1 500

